X: 30161
M: 3/8
L: 1/8
K: Bb
f |\
fge | c2A | BdB | FBd |\
fec | fdB | Ac/B/A/G/ | F2 f |\
fge | c2A | BdB | FBd |\
fec | fdB | c{=e}f{e}f | "^D.C."F2 |]


